X:124
T:RVW2/2/124 The Young Indian Lass
C:Mr. Woolford, Ramsbury, Wiltshire, 27 August 1904
L:1/4
Q:1/4=110
M:3/4
I:linebreak $
K:G
"^(Editorial suggestion  " D | E B B | B B B/B/ | A B F | D2 D | E F E |$ G F E | A G A | B2 c | 
w: As|I was a-|wal- king in a|far dis- tant|shore I|called at an|ale- house to|spend half an|hour. As|
d d B | d e f | e d B |$ d2 d | e d B | A F D | F D E | E2 |] 
w: I sat a|smok- ing be-|side me a|glass By|chance there came|in a young|In- di- an|lass.|



